X: 1
T: Sborenka
R: tropanka
S: handwritten copy from Colin Ferguson 2018-4-15
N: "Transcribed for Veselba by Chris Riete"
Z: 2018 John Chambers <jc:trillian.mit.edu>
L: 1/16
M: 2/4
K: Amix
"A"|:\
deed cddc | eEd2 dcB2 | eEdE c2BA | A2AE A2AG |
ABBG B2BA | ABcd c2BA | B2BA c2BA |1 A2AE ABcd :|2 A2AE Az3 ||
"B"|:\
dEcE eAAA | dEcE BAAA | dEcE eAAA | dEcE B2BA :|
"C"|:\
ABcd c2cB | B2BA ABcE | ABcd c2cB | B2BA A2EA :|
"D"|:\
B2eE ~c2eE | B2eE c2BA | B2eE ~c2eE | B2eE cEc2 !fine!:|
"E"|:\
A2dB c2AA | B2BA ABcE | A2dB c2AA |1 B2eE AEA2 :|2 B2eE A z3 ||
"F"|:\
ABcd c2cB | B2BA AEA2 |1,3 dAde edcB :|2 E2GA A2AE :|4 E2GA Az3 ||
"G"|:\
ABc2 BABc | BA-AE cd-dc | eEdc BABc |1 BA-AE A2AG :|2 BA-AE Az3 ||
"H"|:\
ABc2 BA-AE | dec2 BA-AE | ABc2 BA-AE | dBc2 BA-AE :|
"I"|:\
A2A=c BAG2 | A2A=c BAG2 | A2A=c B2AG |1 A2AE A2AG :|2 A2AE AB^c"d.C."d |]
